X:1
T:Title
%%score 1 { 2 | 3 }
L:1/8
Q:1/4=110
M:9/8
K:E
V:1 treble nm="Grand Piano, Soprano"
V:2 bass nm="Choir Pad, G�tersloh, 98.98 D"
V:3 bass 
V:1
 [GB]3 [GB]3- [GB][EG][B,E] | [B,E][B,F][EG] [EB]3 .[EA]3 | [EA]3 [EG]3- [EG][B,F][B,E] | %3
w: By~Peter~Philip~Bilhorn,~1887 * * * *|||
 [B,G][B,E][B,F] [B,E]6 | [GB]3 [GB]3- [GB][EG][B,E] | [B,E][B,F][EG] [EB]3 .[EA]3 | %6
w: |||
 [EA]3 [EG]3- [EG][B,F][B,E] | [B,G][B,E][B,F] [B,E]6 | E3 [Ec]3- [Ec][D^B][Ec] | %9
w: |||
 [Ee][Ed][Ec] [EB]3 .[EG]3 | [GB]3 [Ge]3- [Ge][Gd][Gc] | [Fd][DB][Ec] [DB]6 | %12
w: |||
 [AB]3 [GB]3- [GB][EG][B,E] | [B,E][B,F][EG] [EB]3 .[EA]3 | [EA]3 [EG]3- [EG][B,F][B,E] | %15
w: |||
 [B,G][B,E][B,F] [B,E]6- | [B,E]3 z3 z3 |] %17
w: ||
V:2
 B,3 E3- EB,G, | G,A,B,[K:treble] =D3 .C3 | C3 B,3- B,[K:bass]A,G, | B,G,A, G,6 | B,3 E3- EB,G, | %5
 G,A,B,[K:treble] =D3 .C3 | C3 B,3- B,[K:bass]A,G, | B,G,A, G,6 | G,3 A,3- A,A,A, | %9
 CB,A, G,3 .B,3 | B,3[K:treble] C3- C^B,C | B,[K:bass]B,^A, B,6 | A,3 E3- EB,G, | %13
 G,A,B,[K:treble] =D3 .C3 | C3 B,3- B,[K:bass]A,G, | B,G,A, G,6- | G,3 z3 z3 |] %17
V:3
 E,3 E,3- E,E,E, | E,E,E, A,,3 .A,,3 | A,,3 B,,3- B,,B,,B,, | B,,B,,B,, E,6 | E,3 E,3- E,E,E, | %5
 E,E,E, A,,3 .A,,3 | A,,3 B,,3- B,,B,,B,, | B,,B,,B,, E,6 | E,3 A,,3- A,,A,,A,, | %9
 A, .A,2 E,3 .E,3 | E,3 C,3- C,D,E, | F,F,F, B,,6 | B,,3 E,3- E,E,E, | E,E,E, A,,3 .A,,3 | %14
 A,,3 B,,3- B,,B,,B,, | B,,B,,B,, E,6- | E,3 z3 z3 |] %17

